X:1
T:Once in royal David's city
T:Once in royal David's city
T:Henry John Gauntlett (1805-1876)
T:Arr: Arthur Henry Mann (1850-1929)
T:Cecil Frances Alexander (1823-1895)
C:Arr: Arthur Henry Mann (1850-1929)
Z:Cecil Frances Alexander (1823-1895)
%%score [ 1 2 3 4 ]
L:1/8
Q:1/4=80
M:4/4
K:G
V:1 treble nm="Soprano"
V:2 treble nm="Alto"
V:3 treble-8 nm="Tenor"
V:4 bass nm="Bass"
V:1
 D2 F2 G3 G | (GF) (GA) A2 G2 | G2 B2 d3 B | (BA) (GF) G4 :| e2 e2 d3 G | c2 c2 (B2 B2) | %6
w: 1.Once in roy- al|Da- * vid's _ ci- ty|stood a low- ly|cat- * tle _ shed,|Mar- y was that|moth- er mild, _|
w: Where a moth- er|laid _ her _ ba- by|in a man- ger|for _ his _ bed:|||
 e2 e2 d3 B | (BA) (GF) (G2 G2) |] %8
w: Je- sus Christ her|lit- * tle _ child. _|
w: ||
V:2
 D2 F2 D2 D2 | ^C2 C2 (D=C) B,2 | D2 G2 D2 D2 | E2 D2 D4 :| (EF) (GA) D2 D2 | E2 F2 (G2 F2) | %6
w: 1.Once in roy- al|Da- vid's ci- * ty|stood a low- ly|cat- tle shed,|Mar- * y _ was that|moth- er mild, _|
w: Where a moth- er|laid her ba- * by|in a man- ger|for his bed:|||
 (EF) (GA) (DFG) G | E2 D2 (D2 D2) |] %8
w: Je- * sus _ Christ _ _ her|lit- tle child. _|
w: ||
V:3
 B2 c2 d2 B2 | A2 G2 F2 G2 | B2 d2 A2 (Bd) | (dc) (BA) B4 :| G2 c2 B2 B2 | c2 d2 (d2 d2) | %6
w: 1.Once in roy- al|Da- vid's ci- ty|stood a low- ly _|cat- * tle _ shed,|Mar- y was that|moth- er mild, _|
w: Where a moth- er|laid her ba- by|in a man- ger _|for _ his _ bed:|||
 c2 c2 (Bcd) d | (dc) (BA) (B2 B2) |] %8
w: Je- sus Christ _ _ her|lit- * tle _ child. _|
w: ||
V:4
 B,2 A,2 B,2 G,2 | E,2 A,,2 D,2 G,,2 | B,2 G,2 F,2 G,2 | C,2 D,2 G,4 :| (C,D,) (E,F,) G,2 B,2 | %5
w: 1.Once in roy- al|Da- vid's ci- ty|stood a low- ly|cat- tle shed,|Mar- * y _ was that|
w: Where a moth- er|laid her ba- by|in a man- ger|for his bed:||
 A,2 D,2 (G,2 G,2) | (C,D,) (E,F,) (G,A,B,) G, | C,2 D,2 (([G,,G,]2 [G,,G,]2)) |] %8
w: moth- er mild, _|Je- * sus _ Christ _ _ her|lit- tle child. _|
w: |||

